X:1
T:Title
%%score 1 ( 2 3 )
L:1/8
M:4/4
K:F
V:1 treble nm="Grand Piano, Unnamed-000"
V:2 bass nm="Choir Pad, Unnamed-001"
V:3 bass 
V:1
 [Fc]2 [FA]>[FB] [Fc]2 [Fc]2 | [Fd]4 [Fc]4 | [CF]2 [CF]>[CF] [DF]2 [EG]2 | [FA]8 | %4
w: By~Lowell~Mason,~1864 * * * *||||
 [Fc]2 [FA]>[FB] [Fc]2 [Fc]2 | [Fd]4 [Fc]4 | F2 [FG]2 [FA]2 [EG]2 | [CF]8 | %8
w: ||||
 [EG]2 [EG]>[EG] [EG]2 [FA]2 | [EB]3 [FA] [EG]4 | [FA]2 [FA]>[FA] [FA]2 [F=B]2 | [Ec]8 | %12
w: ||||
 [Fc]2 [FA]>[FB] [Fc]2 [Fc]2 | [Fd]4 [Fc]4 | F2 [FG]2 [FA]2 [EG]2 | [CF]8 |] %16
w: ||||
V:2
 [F,A,]2 [F,C]>[G,C] [A,C]2 [F,A,]2 | B,2- [D,B,]2 [F,A,]4 | [F,A,]2 [F,A,]>[F,A,] [D,A,]2 [C,C]2 | %3
 [F,C]8 | [F,A,]2 [F,C]>[G,C] [A,C]2 [F,A,]2 | B,2- [D,B,]2 [F,A,]4 | [A,C]2 [B,D]2 C2 [C,B,]2 | %7
 [F,A,]8 | [C,C]2 [C,C]>[C,C] [B,C]2 [A,C]2 | C3- [F,C] [C,C]4 | %10
 [F,C]2 [F,C]>[F,C] [E,C]2 [D,G,]2 | [C,G,]8 | [F,A,]2 [F,C]>[F,B,] [F,A,]2 [F,A,]2 | B,4 z4 | %14
 [A,C]2 [B,D]2 C2 [B,,B,]2 | [F,A,]8 |] %16
V:3
 x8 | B,,2 z2 z4 | x8 | x8 | x8 | B,,2 z2 z4 | x8 | x8 | x8 | G,4 z4 | x8 | x8 | x8 | %13
 B,,2 D,2 [F,A,]4 | x8 | x8 |] %16

